svg/earth_off.svg

<svg xmlns="http://www.w3.org/2000/svg" viewBox="0 0 24 24"><path d="m22 5.27-1.5 1.48C21.46 8.28 22 10.07 22 12a10 10 0 0 1-10 10c-1.92 0-3.72-.54-5.25-1.5L5.27 22 4 20.72 20.72 4zm-4.1 12.12C19.2 15.97 20 14.08 20 12c0-1.37-.34-2.66-.95-3.78l-4.22 4.22c.11.16.17.35.17.56v3h1c.89 0 1.64.59 1.9 1.39M11 19.93V18c-.5 0-.93-.17-1.27-.46l-1.51 1.51c.85.45 1.78.75 2.78.88m4-15.34V5a2 2 0 0 1-2 2h-2v2a1 1 0 0 1-1 1H8v2h2.18l-2.09 2.09-3.88-3.88C4.08 10.78 4 11.38 4 12c0 1.74.56 3.36 1.5 4.67L4.08 18.1A9.9 9.9 0 0 1 2 12 10 10 0 0 1 12 2c2.3 0 4.41.77 6.1 2.08L16.67 5.5A8.2 8.2 0 0 0 15 4.59"/></svg>

<?xml version="1.0" encoding="UTF-8"?><!DOCTYPE svg PUBLIC "-//W3C//DTD SVG 1.1//EN" "http://www.w3.org/Graphics/SVG/1.1/DTD/svg11.dtd"><svg xmlns="http://www.w3.org/2000/svg" xmlns:xlink="http://www.w3.org/1999/xlink" version="1.1" id="mdi-earth-off" width="24" height="24" viewBox="0 0 24 24"><path d="M22,5.27L20.5,6.75C21.46,8.28 22,10.07 22,12A10,10 0 0,1 12,22C10.08,22 8.28,21.46 6.75,20.5L5.27,22L4,20.72L20.72,4L22,5.27M17.9,17.39C19.2,15.97 20,14.08 20,12C20,10.63 19.66,9.34 19.05,8.22L14.83,12.44C14.94,12.6 15,12.79 15,13V16H16C16.89,16 17.64,16.59 17.9,17.39M11,19.93V18C10.5,18 10.07,17.83 9.73,17.54L8.22,19.05C9.07,19.5 10,19.8 11,19.93M15,4.59V5A2,2 0 0,1 13,7H11V9A1,1 0 0,1 10,10H8V12H10.18L8.09,14.09L4.21,10.21C4.08,10.78 4,11.38 4,12C4,13.74 4.56,15.36 5.5,16.67L4.08,18.1C2.77,16.41 2,14.3 2,12A10,10 0 0,1 12,2C14.3,2 16.41,2.77 18.1,4.08L16.67,5.5C16.16,5.14 15.6,4.83 15,4.59Z" /></svg>
